app/src/assets/icons/website/briefcase-1.svg

<svg height="512" viewBox="0 0 24 24" width="512" xmlns="http://www.w3.org/2000/svg"><path d="m5 22h14a3 3 0 0 0 3-3v-10a3 3 0 0 0 -3-3h-2v-2a2 2 0 0 0 -2-2h-6a2 2 0 0 0 -2 2v2h-2a3 3 0 0 0 -3 3v10a3 3 0 0 0 3 3zm13-14h1a1 1 0 0 1 1 1v10a1 1 0 0 1 -1 1h-1zm-9-4h6v2h-6zm-1 4h8v12h-8zm-4 1a1 1 0 0 1 1-1h1v12h-1a1 1 0 0 1 -1-1z"/></svg>

<svg height="512" viewBox="0 0 24 24" width="512" xmlns="http://www.w3.org/2000/svg"><path d="M5 22h14a3 3 0 003-3V9a3 3 0 00-3-3h-2V4a2 2 0 00-2-2H9a2 2 0 00-2 2v2H5a3 3 0 00-3 3v10a3 3 0 003 3zM18 8h1a1 1 0 011 1v10a1 1 0 01-1 1h-1zM9 4h6v2H9zM8 8h8v12H8zM4 9a1 1 0 011-1h1v12H5a1 1 0 01-1-1z"/></svg>
